public/images/modals/export/loading-dark.svg

<svg width="208" height="105" viewBox="0 0 208 105" fill="none" xmlns="http://www.w3.org/2000/svg">
<path d="M147.015 52.0586C147.015 75.8068 127.763 95.0586 104.015 95.0586C99.1132 95.0586 94.4033 94.2385 90.0146 92.7281M145.846 42.0586C145.355 39.9971 144.715 37.9931 143.939 36.0586M139.699 28.0586C131.975 16.5971 118.875 9.05859 104.015 9.05859C80.2664 9.05859 61.0146 28.3104 61.0146 52.0586C61.0146 60.5181 63.4575 68.4071 67.6763 75.0586M81.0146 88.3969C77.9729 86.4676 75.1899 84.1669 72.7295 81.5586" stroke="#3D444D" stroke-width="2" stroke-linecap="round"/>
<circle cx="103.515" cy="52.5586" r="31.5" stroke="#3D444D" stroke-width="2"/>
<circle cx="103.5" cy="52.5" r="27.5" fill="#3D444D"/>
<path d="M108.738 60.9518V66.9773C108.738 67.5311 108.287 67.9794 107.733 67.9773L99.3322 67.9463C98.7813 67.9442 98.335 67.4971 98.335 66.9463V60.9353C98.335 60.6742 98.4371 60.4235 98.6195 60.2366L102.694 56.0639C103.079 55.67 103.71 55.6611 104.105 56.044L108.433 60.2333C108.628 60.4217 108.738 60.681 108.738 60.9518Z" fill="#23272D"/>
<path d="M102.968 48.2919L100.111 45.5264C99.465 44.9013 99.9075 43.8079 100.806 43.8079L106.364 43.8079C107.249 43.8079 107.698 44.8733 107.08 45.5066L104.379 48.2721C103.994 48.666 103.364 48.6749 102.968 48.2919Z" fill="#23272D"/>
<path d="M113.5 68V59.6911C113.5 59.4274 113.396 59.1744 113.21 58.9871L107.092 52.8149C106.705 52.4251 106.705 51.7966 107.092 51.4068L108.486 50M113.5 68L108.738 67.9824M113.5 68H117.5M113.5 36V44.5306C113.5 44.7943 113.396 45.0473 113.21 45.2346L111.956 46.5M113.5 36H93.5M113.5 36H117.5M93.5 67.9261V59.638C93.5 59.3739 93.6045 59.1205 93.7906 58.9332L96 56.7096M93.5 67.9261L98.3352 67.944M93.5 67.9261H89M93.5 36V44.5093C93.5 44.7734 93.6045 45.0268 93.7906 45.2141L99.9059 51.3688C100.293 51.7588 100.293 52.3885 99.9059 52.7785L98.3031 54.3916M93.5 36H89M108.738 67.9824V60.9532C108.738 60.6823 108.628 60.4231 108.434 60.2347L104.105 56.0454C103.71 55.6625 103.079 55.6713 102.695 56.0652L98.6197 60.238C98.4373 60.4248 98.3352 60.6756 98.3352 60.9367V67.944M108.738 67.9824C104.675 67.9674 102.398 67.959 98.3352 67.944M100.71 43.9815H106.266C107.165 43.9815 107.607 45.0753 106.961 45.7003L104.105 48.463C103.71 48.8456 103.079 48.8367 102.695 48.4431L99.9952 45.6804C99.3765 45.0472 99.8251 43.9815 100.71 43.9815Z" stroke="#E3E8EA" stroke-width="2" stroke-linecap="round"/>
<path d="M30.5609 16.0038H32.5609V9.00382L39.5609 9.00382V7.00382L32.5609 7.00382V0.0038225L30.5609 0.00382232V7.00382L23.5609 7.00382V9.00382L30.5609 9.00382L30.5609 16.0038Z" fill="#3D444D"/>
<path d="M73.5609 104.004H75.5609V97.0038H82.5609L82.561 95.0038H75.5609V88.0038H73.5609V95.0038H66.5609V97.0038H73.5609V104.004Z" fill="#3D444D"/>
<path d="M7.55958 104.002H9.55958L9.55958 97.0021H16.5596V95.0021H9.55958L9.55958 88.0021H7.55958L7.55958 95.0021H0.559571L0.55957 97.0021H7.55958L7.55958 104.002Z" fill="#3D444D"/>
<path d="M29.5596 104.002L31.5596 104.002L31.5596 97.0021H38.5596V95.0021H31.5596L31.5596 88.0021L29.5596 88.0021L29.5596 95.0021H22.5596V97.0021H29.5596L29.5596 104.002Z" fill="#3D444D"/>
<path d="M29.5596 82.0021L31.5596 82.0021L31.5596 75.0021H38.5596V73.0021H31.5596L31.5596 66.0021L29.5596 66.0021L29.5596 73.0021H22.5596V75.0021H29.5596L29.5596 82.0021Z" fill="#3D444D"/>
<path d="M52.0596 82.0021H54.0596V75.0021H61.0597V73.0021H54.0596V66.0021H52.0596V73.0021H45.0596V75.0021H52.0596V82.0021Z" fill="#3D444D"/>
<path d="M52.0593 16.002H54.0593V9.00195H61.0593V7.00195L54.0593 7.00195V0.0019533L52.0593 0.00195312V7.00195L45.0593 7.00195V9.00195H52.0593V16.002Z" fill="#3D444D"/>
<path d="M52.0595 38.002H54.0595V31.002L61.0595 31.002V29.002H54.0595V22.002H52.0595V29.002L45.0595 29.002V31.002L52.0595 31.002V38.002Z" fill="#3D444D"/>
<path d="M73.5595 16.002H75.5595L75.5595 9.00198L82.5595 9.00198V7.00198L75.5595 7.00198V0.00198185L73.5595 0.0019815V7.00198L66.5595 7.00198V9.00198L73.5595 9.00198V16.002Z" fill="#3D444D"/>
<path d="M177.443 16.0001H175.443V9.00013L168.443 9.00013V7.00013L175.443 7.00013V0.00013123L177.443 0.000131405V7.00013L184.443 7.00013V9.00013L177.443 9.00013V16.0001Z" fill="#3D444D"/>
<path d="M134.442 104H132.442L132.442 97.0001H125.442L125.442 95.0001H132.442L132.442 88.0001H134.442L134.442 95.0001H141.442V97.0001H134.442L134.442 104Z" fill="#3D444D"/>
<path d="M200.44 104H198.44V97.0001H191.44V95.0001H198.44V88.0001H200.44V95.0001H207.44V97.0001H200.44V104Z" fill="#3D444D"/>
<path d="M178.44 104H176.44V97.0001H169.44V95.0001H176.44V88.0001H178.44V95.0001H185.44V97.0001H178.44V104Z" fill="#3D444D"/>
<path d="M178.44 82.0002H176.44V75.0002H169.44V73.0002H176.44V66.0002H178.44V73.0002H185.44V75.0002H178.44V82.0002Z" fill="#3D444D"/>
<path d="M155.94 82.0002H153.94V75.0002H146.94V73.0002H153.94V66.0002H155.94V73.0002H162.94V75.0002H155.94V82.0002Z" fill="#3D444D"/>
<path d="M155.941 16H153.941V9L146.941 9V7L153.941 7V0L155.941 1.78814e-07V7L162.941 7V9L155.941 9V16Z" fill="#3D444D"/>
<path d="M155.94 38H153.94V31H146.94V29L153.94 29V22H155.94V29H162.94V31H155.94V38Z" fill="#3D444D"/>
<path d="M134.44 16H132.44V9.00002L125.44 9.00002V7.00002L132.44 7.00002V2.47955e-05H134.44V7.00002H141.44V9.00002H134.44V16Z" fill="#3D444D"/>
</svg>

<svg width="208" height="105" fill="none" xmlns="http://www.w3.org/2000/svg"><path d="M147.015 52.059c0 23.748-19.252 43-43 43-4.902 0-9.612-.82-14-2.33m55.831-50.67a42.667 42.667 0 0 0-1.907-6m-4.24-8c-7.724-11.462-20.824-19-35.684-19-23.749 0-43 19.251-43 43 0 8.46 2.443 16.348 6.661 23m13.339 13.338a43.212 43.212 0 0 1-8.285-6.838" stroke="#3D444D" stroke-width="2" stroke-linecap="round"/><circle cx="103.515" cy="52.559" r="31.5" stroke="#3D444D" stroke-width="2"/><circle cx="103.5" cy="52.5" r="27.5" fill="#3D444D"/><path d="M108.738 60.952v6.025a1 1 0 0 1-1.005 1l-8.4-.03a1 1 0 0 1-.998-1v-6.012a1 1 0 0 1 .285-.698l4.074-4.173a1 1 0 0 1 1.411-.02l4.328 4.19a.999.999 0 0 1 .305.718ZM102.968 48.292l-2.857-2.766c-.646-.625-.204-1.718.695-1.718h5.558c.885 0 1.334 1.065.716 1.699l-2.701 2.765a1 1 0 0 1-1.411.02Z" fill="#23272D"/><path d="M113.5 68v-8.309a.999.999 0 0 0-.29-.704l-6.118-6.172a.999.999 0 0 1 0-1.408L108.486 50m5.014 18-4.762-.018M113.5 68h4m-4-32v8.53a.999.999 0 0 1-.29.705l-1.254 1.265M113.5 36h-20m20 0h4m-24 31.926v-8.288a1 1 0 0 1 .29-.705L96 56.71m-2.5 11.216 4.835.018m-4.835-.018H89M93.5 36v8.51a1 1 0 0 0 .29.704l6.116 6.155a1 1 0 0 1 0 1.41l-1.603 1.613M93.5 36H89m19.738 31.982v-7.029c0-.27-.11-.53-.304-.718l-4.329-4.19a.999.999 0 0 0-1.41.02l-4.075 4.173a1 1 0 0 0-.285.699v7.007m10.403.038-10.403-.038m2.375-23.963h5.556c.899 0 1.341 1.094.695 1.72l-2.856 2.762a1 1 0 0 1-1.41-.02l-2.7-2.763c-.619-.633-.17-1.699.715-1.699Z" stroke="#E3E8EA" stroke-width="2" stroke-linecap="round"/><path d="M30.56 16.004h2v-7h7v-2h-7v-7h-2v7h-7v2h7v7ZM73.56 104.004h2v-7h7l.001-2h-7v-7h-2v7h-7v2h7v7ZM7.56 104.002h2v-7h7v-2h-7v-7h-2v7h-7v2h7v7ZM29.56 104.002h2v-7h7v-2h-7v-7h-2v7h-7v2h7v7ZM29.56 82.002h2v-7h7v-2h-7v-7h-2v7h-7v2h7v7ZM52.06 82.002h2v-7h7v-2h-7v-7h-2v7h-7v2h7v7ZM52.06 16.002h2v-7h7v-2h-7v-7h-2v7h-7v2h7v7ZM52.06 38.002h2v-7h7v-2h-7v-7h-2v7h-7v2h7v7ZM73.56 16.002h2v-7h7v-2h-7v-7h-2v7h-7v2h7v7ZM177.443 16h-2V9h-7V7h7V0h2v7h7v2h-7v7ZM134.442 104h-2v-7h-7v-2h7v-7h2v7h7v2h-7v7ZM200.44 104h-2v-7h-7v-2h7v-7h2v7h7v2h-7v7ZM178.44 104h-2v-7h-7v-2h7v-7h2v7h7v2h-7v7ZM178.44 82h-2v-7h-7v-2h7v-7h2v7h7v2h-7v7ZM155.94 82h-2v-7h-7v-2h7v-7h2v7h7v2h-7v7ZM155.941 16h-2V9h-7V7h7V0h2v7h7v2h-7v7ZM155.94 38h-2v-7h-7v-2h7v-7h2v7h7v2h-7v7ZM134.44 16h-2V9h-7V7h7V0h2v7h7v2h-7v7Z" fill="#3D444D"/></svg>
